src/icons/svg/current-records.svg

<?xml version="1.0" encoding="UTF-8"?>
<svg width="10px" height="12px" viewBox="0 0 10 12" version="1.1" xmlns="http://www.w3.org/2000/svg" xmlns:xlink="http://www.w3.org/1999/xlink">
    <!-- Generator: Sketch 54.1 (76490) - https://sketchapp.com -->
    <title>分币宝交易记录</title>
    <desc>Created with Sketch.</desc>
    <g id="页面1" stroke="none" stroke-width="1" fill="none" fill-rule="evenodd">
        <g id="M端-活期" transform="translate(-295.000000, -189.000000)" fill="#FF5656">
            <g id="Group-2" transform="translate(0.000000, 107.000000)">
                <g id="分币宝交易记录" transform="translate(295.000000, 82.000000)">
                    <path d="M8.53395127,5.86956522 L1.94394364,5.86956522 C1.7424657,5.86956522 1.57894737,5.98156522 1.57894737,6.11956522 C1.57894737,6.25756522 1.7424657,6.36956522 1.94394364,6.36956522 L8.53395127,6.36956522 C8.73542921,6.36956522 8.89894754,6.25756522 8.89894754,6.11956522 C8.89894754,5.98156522 8.73542921,5.86956522 8.53395127,5.86956522" id="Fill-4"></path>
                    <path d="M8.53395127,8.31521739 L1.94394364,8.31521739 C1.7424657,8.31521739 1.57894737,8.42721739 1.57894737,8.56521739 C1.57894737,8.70321739 1.7424657,8.81521739 1.94394364,8.81521739 L8.53395127,8.81521739 C8.73542921,8.81521739 8.89894754,8.70321739 8.89894754,8.56521739 C8.89894754,8.42721739 8.73542921,8.31521739 8.53395127,8.31521739" id="Fill-6"></path>
                    <path d="M9.05775758,10.7012195 L0.870181818,10.7012195 C0.779575758,10.7012195 0.605939394,10.4781402 0.605939394,10.1277439 L0.605939394,1.22487805 C0.605939394,0.874756098 0.779575758,0.651402439 0.870181818,0.651402439 L5.53290909,0.651402439 C5.53654545,0.651402439 5.53987879,0.649481707 5.54351515,0.649481707 L5.67836364,3.89743902 C5.68442424,4.04478659 5.81806061,4.16140244 5.98109091,4.16140244 L9.32230303,4.16140244 L9.32230303,10.1277439 C9.32230303,10.4781402 9.14866667,10.7012195 9.05775758,10.7012195 L9.05775758,10.7012195 Z M8.9050303,3.61262195 L6.27290909,3.61262195 L6.16775758,1.0772561 L8.9050303,3.61262195 Z M9.91684848,3.95012195 C9.94048485,3.85929878 9.91533333,3.7632622 9.842,3.69521341 L6.05230303,0.185213415 C5.96472727,0.104268293 5.83109091,0.0801219512 5.71593939,0.124847561 C5.70351515,0.129786585 5.69381818,0.137469512 5.68260606,0.143506098 C5.63775758,0.119908537 5.58836364,0.102621951 5.53290909,0.102621951 L0.870181818,0.102621951 C0.38230303,0.102621951 -0.000121212121,0.59570122 -0.000121212121,1.22487805 L-0.000121212121,10.1277439 C-0.000121212121,10.7571951 0.38230303,11.25 0.870181818,11.25 L9.05775758,11.25 C9.54593939,11.25 9.92836364,10.7571951 9.92836364,10.1277439 L9.92836364,4.00143293 C9.92836364,3.98304878 9.92048485,3.96713415 9.91684848,3.95012195 L9.91684848,3.95012195 Z" id="Fill-1"></path>
                </g>
            </g>
        </g>
    </g>
</svg>

<svg width="10" height="12" xmlns="http://www.w3.org/2000/svg"><g fill="#FF5656" fill-rule="evenodd"><path d="M8.534 5.87h-6.59c-.202 0-.365.112-.365.25s.163.25.365.25h6.59c.201 0 .365-.112.365-.25s-.164-.25-.365-.25m0 2.445h-6.59c-.202 0-.365.112-.365.25s.163.25.365.25h6.59c.201 0 .365-.112.365-.25s-.164-.25-.365-.25"/><path d="M9.058 10.701H.87c-.09 0-.264-.223-.264-.573V1.225C.606.875.78.65.87.65h4.663l.01-.002.135 3.248c.006.148.14.264.303.264h3.341v5.967c0 .35-.173.573-.264.573zm-.153-7.088H6.273l-.105-2.536 2.737 2.536zm1.012.337a.255.255 0 00-.075-.255L6.052.185a.327.327 0 00-.336-.06c-.012.005-.022.012-.033.019a.319.319 0 00-.15-.041H.87C.382.103 0 .596 0 1.225v8.903c0 .63.382 1.122.87 1.122h8.188c.488 0 .87-.493.87-1.122V4c0-.018-.008-.034-.011-.05z"/></g></svg>
